!!!SOCIAL_FUNCTION:	bird dance songs
!!!PDT:	1956
!!!OTL: No_129_Catfish_Dance_Song_(c).krn
!!!LANG: Non-Tone
!!!LING_GROUP: Muskogean
!!!REG: Florida
**kern
*staff1
=1-
=
*clefF4
*k[b-]
*M2/4
8c\L
8c\J
4A\
=2
4c\
8d\L
8c\J
=3
8d\L
8c\J
4A\
=4
4.A\
8r
=5
4A\
4A\
=6
4c\
4c\
=7
8.c\L
16A\Jk
4A\
=8
4c\
4c\
=9
8c\L
8A\J
4G\
=10
8G\L
8F\J
4D\
=11
8D/L
8C/J
8C/
8r
=12
4C/
4D\
=13
8D/L
8C/J
4C/
=14
2C/
=15
4C/
8C/
8r
=16
4D\
8D/L
8C/J
=17
8D/L
8C/J
4AA/
=18
4AA/
4r
=19
4C/
8D/L
8C/J
=20
8D/L
8C/J
4AA/
=21
2C/
=22
4C/
4C/
=23
8c\L
8c\J
4A\
=24
4A\
4r
==:|!
*-
